X: 971
T: All The Night I Lay With Jockey
R: three-two
M: 3/2
K: Gmajor
|:Te3d B2g2 dBAG|B2e2 e2B2 d2g2|e3d B2g2 dBAG|ABcd e2A2 c4:|
|:B2d2 edcB cBAG|B2d2 edcB efge|B2d2 edcB cBAG|ABcd e2A2 c4:|
|:B2g2 g2d2 efge|B2g2 g2B2 d4|B2g2 g2d2 efge|A2a2 a2A2 c4:|
|:gfed edcB cBAG|gfed BcdB d4|gfed edcB cBAG|ABcd e2A2 c4:|
|:TG3A B2g2 dBAG|B2e2 e2B2 d2g2|TG3A B2g2 dBAG|ABcd e2A2 c4:|
|:Bded Bdgd Bded|B2g2 g2B2 d4|Bded Bdgd Bded|A2e2 e2A2 c4:|

